%
(1001)
(T2  D=0.794 CR=0. - ZMIN=-2.6 - FLAT END MILL)
N10 G90 G94 G17 G91.1
N15 G21
(WHEN USING FUSION 360 FOR PERSONAL USE, THE FEEDRATE OF)
(RAPID MOVES IS REDUCED TO MATCH THE FEEDRATE OF CUTTING)
(MOVES, WHICH CAN INCREASE MACHINING TIME. UNRESTRICTED RAPID)
(MOVES ARE AVAILABLE WITH A FUSION 360 SUBSCRIPTION.)
N20 G53 G0 Z0.
(2D POCKET1)
N25 T2 M6
N30 S5000 M3
N35 G54
N40 G64 P0.1 Q0.1
N45 M8
N50 G0 X5.052 Y-0.23
N55 G43 Z15. H2
N60 G1 Z5. F1000.
N65 Z2.579 F333.33
N70 X5.064 Y-0.211 Z2.524
N75 X5.087 Y-0.162 Z2.5
N80 G3 X4.383 Y0.109 Z2.459 I-0.352 J0.135
N85 X5.087 Y-0.162 Z2.417 I0.352 J-0.135
N90 X4.383 Y0.109 Z2.376 I-0.352 J0.135
N95 X5.087 Y-0.162 Z2.335 I0.352 J-0.135
N100 X4.383 Y0.109 Z2.293 I-0.352 J0.135
N105 X5.087 Y-0.162 Z2.252 I0.352 J-0.135
N110 X4.383 Y0.109 Z2.21 I-0.352 J0.135
N115 X5.087 Y-0.162 Z2.169 I0.352 J-0.135
N120 X4.383 Y0.109 Z2.128 I-0.352 J0.135
N125 X5.087 Y-0.162 Z2.086 I0.352 J-0.135
N130 X4.383 Y0.109 Z2.045 I-0.352 J0.135
N135 X5.087 Y-0.162 Z2.004 I0.352 J-0.135
N140 X4.383 Y0.109 Z1.962 I-0.352 J0.135
N145 X5.087 Y-0.162 Z1.921 I0.352 J-0.135
N150 X4.383 Y0.109 Z1.88 I-0.352 J0.135
N155 X5.087 Y-0.162 Z1.838 I0.352 J-0.135
N160 X4.383 Y0.109 Z1.797 I-0.352 J0.135
N165 X5.087 Y-0.162 Z1.755 I0.352 J-0.135
N170 X4.383 Y0.109 Z1.714 I-0.352 J0.135
N175 X5.087 Y-0.162 Z1.673 I0.352 J-0.135
N180 X4.383 Y0.109 Z1.631 I-0.352 J0.135
N185 X5.087 Y-0.162 Z1.59 I0.352 J-0.135
N190 X4.383 Y0.109 Z1.549 I-0.352 J0.135
N195 X5.087 Y-0.162 Z1.507 I0.352 J-0.135
N200 X4.383 Y0.109 Z1.466 I-0.352 J0.135
N205 X5.087 Y-0.162 Z1.425 I0.352 J-0.135
N210 X4.383 Y0.109 Z1.383 I-0.352 J0.135
N215 X5.087 Y-0.162 Z1.342 I0.352 J-0.135
N220 X4.383 Y0.109 Z1.3 I-0.352 J0.135
N225 X5.087 Y-0.162 Z1.259 I0.352 J-0.135
N230 X4.383 Y0.109 Z1.218 I-0.352 J0.135
N235 X5.087 Y-0.162 Z1.176 I0.352 J-0.135
N240 X4.383 Y0.109 Z1.135 I-0.352 J0.135
N245 X5.087 Y-0.162 Z1.094 I0.352 J-0.135
N250 X4.383 Y0.109 Z1.052 I-0.352 J0.135
N255 X5.087 Y-0.162 Z1.011 I0.352 J-0.135
N260 X4.383 Y0.109 Z0.97 I-0.352 J0.135
N265 X5.087 Y-0.162 Z0.928 I0.352 J-0.135
N270 X4.383 Y0.109 Z0.887 I-0.352 J0.135
N275 X5.087 Y-0.162 Z0.845 I0.352 J-0.135
N280 X4.383 Y0.109 Z0.804 I-0.352 J0.135
N285 X5.087 Y-0.162 Z0.763 I0.352 J-0.135
N290 X4.383 Y0.109 Z0.721 I-0.352 J0.135
N295 X5.087 Y-0.162 Z0.68 I0.352 J-0.135
N300 X4.383 Y0.109 Z0.639 I-0.352 J0.135
N305 X5.087 Y-0.162 Z0.597 I0.352 J-0.135
N310 X4.383 Y0.109 Z0.556 I-0.352 J0.135
N315 X5.087 Y-0.162 Z0.515 I0.352 J-0.135
N320 X4.383 Y0.109 Z0.473 I-0.352 J0.135
N325 X5.087 Y-0.162 Z0.432 I0.352 J-0.135
N330 X4.383 Y0.109 Z0.39 I-0.352 J0.135
N335 X5.087 Y-0.162 Z0.349 I0.352 J-0.135
N340 X4.383 Y0.109 Z0.308 I-0.352 J0.135
N345 X5.087 Y-0.162 Z0.266 I0.352 J-0.135
N350 X4.383 Y0.109 Z0.225 I-0.352 J0.135
N355 X5.087 Y-0.162 Z0.184 I0.352 J-0.135
N360 X4.383 Y0.109 Z0.142 I-0.352 J0.135
N365 X5.087 Y-0.162 Z0.101 I0.352 J-0.135
N370 X4.383 Y0.109 Z0.06 I-0.352 J0.135
N375 X5.087 Y-0.162 Z0.018 I0.352 J-0.135
N380 X4.383 Y0.109 Z-0.023 I-0.352 J0.135
N385 X5.087 Y-0.162 Z-0.064 I0.352 J-0.135
N390 X4.383 Y0.109 Z-0.106 I-0.352 J0.135
N395 X5.087 Y-0.162 Z-0.147 I0.352 J-0.135
N400 X4.383 Y0.109 Z-0.189 I-0.352 J0.135
N405 X5.087 Y-0.162 Z-0.23 I0.352 J-0.135
N410 X4.383 Y0.109 Z-0.271 I-0.352 J0.135
N415 X5.087 Y-0.162 Z-0.313 I0.352 J-0.135
N420 X4.383 Y0.109 Z-0.354 I-0.352 J0.135
N425 X5.087 Y-0.162 Z-0.395 I0.352 J-0.135
N430 X4.383 Y0.109 Z-0.437 I-0.352 J0.135
N435 X5.087 Y-0.162 Z-0.478 I0.352 J-0.135
N440 X4.383 Y0.109 Z-0.519 I-0.352 J0.135
N445 X5.087 Y-0.162 Z-0.561 I0.352 J-0.135
N450 X4.383 Y0.109 Z-0.602 I-0.352 J0.135
N455 X5.087 Y-0.162 Z-0.644 I0.352 J-0.135
N460 X4.383 Y0.109 Z-0.685 I-0.352 J0.135
N465 X5.087 Y-0.162 Z-0.726 I0.352 J-0.135
N470 X4.383 Y0.109 Z-0.768 I-0.352 J0.135
N475 X5.087 Y-0.162 Z-0.809 I0.352 J-0.135
N480 X4.383 Y0.109 Z-0.85 I-0.352 J0.135
N485 X5.087 Y-0.162 Z-0.892 I0.352 J-0.135
N490 X4.383 Y0.109 Z-0.933 I-0.352 J0.135
N495 X5.087 Y-0.162 Z-0.974 I0.352 J-0.135
N500 X4.735 Y0.351 Z-1. I-0.352 J0.135
N505 G1 X-3.696 F1000.
N510 G3 X-4.016 Y0.031 I0. J-0.319
N515 G1 Y-0.031
N520 G3 X-3.696 Y-0.351 I0.319 J0.
N525 G1 X4.766
N530 G3 X5.086 Y-0.031 I0. J0.319
N535 G1 Y0.031
N540 G3 X4.766 Y0.351 I-0.319 J0.
N545 G1 X4.735
N550 G2 X4.453 Y0.539 I0. J0.306
N555 G3 X4.171 Y0.727 I-0.282 J-0.118
N560 G1 X-4.073
N565 G3 X-4.392 Y0.408 I0. J-0.319
N570 G1 Y-0.408
N575 G3 X-4.073 Y-0.727 I0.319 J0.
N580 G1 X5.143
N585 G3 X5.462 Y-0.408 I0. J0.319
N590 G1 Y0.408
N595 G3 X5.143 Y0.727 I-0.319 J0.
N600 G1 X4.171
N605 G2 X3.888 Y0.915 I0. J0.306
N610 G3 X3.606 Y1.103 I-0.282 J-0.118
N615 G1 X-4.449
N620 G3 X-4.768 Y0.784 I0. J-0.319
N625 G1 Y-0.784
N630 G3 X-4.449 Y-1.103 I0.319 J0.
N635 G1 X5.519
N640 G3 X5.838 Y-0.784 I0. J0.319
N645 G1 Y0.784
N650 G3 X5.519 Y1.103 I-0.319 J0.
N655 G1 X3.606
N660 G2 X3.324 Y1.291 I0. J0.306
N665 G3 X3.042 Y1.479 I-0.282 J-0.118
N670 G1 X-4.825
N675 G3 X-5.144 Y1.16 I0. J-0.319
N680 G1 Y-1.16
N685 G3 X-4.825 Y-1.479 I0.319 J0.
N690 G1 X5.895
N695 G3 X6.214 Y-1.16 I0. J0.319
N700 G1 Y1.16
N705 G3 X5.895 Y1.479 I-0.319 J0.
N710 G1 X3.042
N715 G2 X2.76 Y1.668 I0. J0.306
N720 G3 X2.478 Y1.856 I-0.282 J-0.118
N725 G1 X-5.201
N730 G3 X-5.521 Y1.536 I0. J-0.319
N735 G1 Y-1.536
N740 G3 X-5.201 Y-1.856 I0.319 J0.
N745 G1 X6.271
N750 G3 X6.591 Y-1.536 I0. J0.319
N755 G1 Y1.536
N760 G3 X6.271 Y1.856 I-0.319 J0.
N765 G1 X2.478
N770 G2 X2.195 Y2.044 I0. J0.306
N775 G3 X1.913 Y2.232 I-0.282 J-0.118
N780 G1 X-5.578
N785 G3 X-5.897 Y1.913 I0. J-0.319
N790 G1 Y-1.913
N795 G3 X-5.578 Y-2.232 I0.319 J0.
N800 G1 X6.648
N805 G3 X6.967 Y-1.913 I0. J0.319
N810 G1 Y1.913
N815 G3 X6.648 Y2.232 I-0.319 J0.
N820 G1 X1.913
N825 G2 X1.631 Y2.42 I0. J0.306
N830 G3 X1.349 Y2.608 I-0.282 J-0.118
N835 G1 X-5.954
N840 G3 X-6.273 Y2.289 I0. J-0.319
N845 G1 Y-2.289
N850 G3 X-5.954 Y-2.608 I0.319 J0.
N855 G1 X7.024
N860 G3 X7.343 Y-2.289 I0. J0.319
N865 G1 Y2.289
N870 G3 X7.024 Y2.608 I-0.319 J0.
N875 G1 X1.349
N880 G2 X1.067 Y2.796 I0. J0.306
N885 G3 X0.784 Y2.984 I-0.282 J-0.118
N890 G1 X-6.33
N895 G3 X-6.649 Y2.665 I0. J-0.319
N900 G1 Y-2.665
N905 G3 X-6.33 Y-2.984 I0.319 J0.
N910 G1 X7.4
N915 G3 X7.719 Y-2.665 I0. J0.319
N920 G1 Y2.665
N925 G3 X7.4 Y2.984 I-0.319 J0.
N930 G1 X0.784
N935 G2 X0.502 Y3.172 I0. J0.306
N940 G3 X0.22 Y3.361 I-0.282 J-0.118
N945 G1 X-6.706
N950 G3 X-7.026 Y3.041 I0. J-0.319
N955 G1 Y-3.041
N960 G3 X-6.706 Y-3.361 I0.319 J0.
N965 G1 X7.776
N970 G3 X8.096 Y-3.041 I0. J0.319
N975 G1 Y3.041
N980 G3 X7.776 Y3.361 I-0.319 J0.
N985 G1 X0.22
N990 G2 X-0.062 Y3.549 I0. J0.306
N995 G3 X-0.344 Y3.737 I-0.282 J-0.118
N1000 G1 X-7.083
N1005 G3 X-7.402 Y3.418 I0. J-0.319
N1010 G1 Y-3.418
N1015 G3 X-7.083 Y-3.737 I0.319 J0.
N1020 G1 X8.153
N1025 G3 X8.472 Y-3.418 I0. J0.319
N1030 G1 Y3.418
N1035 G3 X8.153 Y3.737 I-0.319 J0.
N1040 G1 X-0.344
N1045 G2 X-0.627 Y3.925 I0. J0.306
N1050 G3 X-0.909 Y4.113 I-0.282 J-0.118
N1055 G1 X-7.459
N1060 G3 X-7.778 Y3.794 I0. J-0.319
N1065 G1 Y-3.794
N1070 G3 X-7.459 Y-4.113 I0.319 J0.
N1075 G1 X8.529
N1080 G3 X8.848 Y-3.794 I0. J0.319
N1085 G1 Y3.798
N1090 G3 X8.533 Y4.113 I-0.315 J0.
N1095 G1 X-0.909
N1100 G2 X-1.191 Y4.301 I0. J0.306
N1105 G3 X-1.473 Y4.489 I-0.282 J-0.118
N1110 G1 X-7.835
N1115 G3 X-8.154 Y4.17 I0. J-0.319
N1120 G1 Y-4.17
N1125 G3 X-7.835 Y-4.489 I0.319 J0.
N1130 G1 X8.905
N1135 G3 X9.224 Y-4.17 I0. J0.319
N1140 G1 Y3.898
N1145 X9.219 Y3.977
N1150 X9.202 Y4.055
N1155 X9.175 Y4.129
N1160 X9.163 Y4.155
N1165 G3 X8.648 Y4.489 I-0.515 J-0.231
N1170 G1 X-1.473
N1175 G2 X-1.755 Y4.677 I0. J0.306
N1180 G3 X-2.037 Y4.866 I-0.282 J-0.118
N1185 G1 X-8.211
N1190 G3 X-8.531 Y4.546 I0. J-0.319
N1195 G1 Y-4.546
N1200 G3 X-8.211 Y-4.866 I0.319 J0.
N1205 G1 X9.281
N1210 G3 X9.601 Y-4.546 I0. J0.319
N1215 G1 Y3.938
N1220 G3 X9.533 Y4.25 I-0.754 J0.
N1225 G2 X9.414 Y4.521 I10.182 J4.628
N1230 G3 X8.894 Y4.866 I-0.52 J-0.22
N1235 G1 X-2.037
N1240 G2 X-2.32 Y5.054 I0. J0.306
N1245 G3 X-2.602 Y5.242 I-0.282 J-0.118
N1250 G1 X-8.588
N1255 G3 X-8.907 Y4.923 I0. J-0.319
N1260 G1 Y-4.923
N1265 G3 X-8.588 Y-5.242 I0.319 J0.
N1270 G1 X9.658
N1275 G3 X9.977 Y-4.923 I0. J0.319
N1280 G1 Y3.892
N1285 G3 X9.858 Y4.443 I-1.345 J0.
N1290 G2 X9.637 Y4.972 I9.857 J4.434
N1295 G3 X9.244 Y5.242 I-0.394 J-0.153
N1300 G1 X-2.602
N1305 G2 X-2.884 Y5.43 I0. J0.306
N1310 G3 X-3.166 Y5.618 I-0.282 J-0.118
N1315 G1 X-8.964
N1320 G3 X-9.283 Y5.299 I0. J-0.319
N1325 G1 Y-5.299
N1330 G3 X-8.964 Y-5.618 I0.319 J0.
N1335 G1 X9.931
N1340 G3 X10.353 Y-5.196 I0. J0.422
N1345 G1 Y3.973
N1350 G3 X10.231 Y4.533 I-1.345 J0.
N1355 G2 X9.902 Y5.339 I9.484 J4.345
N1360 G3 X9.505 Y5.618 I-0.397 J-0.143
N1365 G1 X-3.166
N1370 G2 X-3.448 Y5.806 I0. J0.306
N1375 G3 X-3.731 Y5.994 I-0.282 J-0.118
N1380 G1 X-9.34
N1385 G3 X-9.659 Y5.675 I0. J-0.319
N1390 G1 Y-5.675
N1395 G3 X-9.34 Y-5.994 I0.319 J0.
N1400 G1 X10.118
N1405 G3 X10.628 Y-5.672 I0. J0.565
N1410 G1 X10.65 Y-5.625
N1415 X10.672 Y-5.579
N1420 G3 X10.729 Y-5.332 I-0.508 J0.247
N1425 G1 Y3.957
N1430 G3 X10.567 Y4.702 I-1.795 J0.
N1435 G2 X10.173 Y5.705 I9.148 J4.176
N1440 G3 X9.772 Y5.994 I-0.401 J-0.133
N1445 G1 X-3.731
N1450 G2 X-4.013 Y6.182 I0. J0.306
N1455 G3 X-4.295 Y6.371 I-0.282 J-0.118
N1460 G1 X-9.716
N1465 G3 X-10.036 Y6.051 I0. J-0.319
N1470 G1 Y-6.051
N1475 G3 X-9.716 Y-6.371 I0.319 J0.
N1480 G1 X10.359
N1485 G3 X10.875 Y-6.036 I0. J0.565
N1490 G2 X11.005 Y-5.756 I8.84 J-3.942
N1495 G3 X11.106 Y-5.317 I-0.907 J0.439
N1500 G1 Y3.909
N1505 G3 X10.893 Y4.894 I-2.395 J0.
N1510 G2 X10.452 Y6.071 I8.822 J3.984
N1515 G3 X10.048 Y6.371 I-0.404 J-0.122
N1520 G1 X-4.295
N1525 G2 X-4.577 Y6.559 I0. J0.306
N1530 G3 X-4.859 Y6.747 I-0.282 J-0.118
N1535 G1 X-10.093
N1540 G3 X-10.412 Y6.428 I0. J-0.319
N1545 G1 Y-6.428
N1550 G3 X-10.093 Y-6.747 I0.319 J0.
N1555 G1 X10.607
N1560 G3 X11.128 Y-6.399 I0. J0.565
N1565 G2 X11.347 Y-5.913 I8.587 J-3.578
N1570 G3 X11.482 Y-5.326 I-1.21 J0.588
N1575 G1 Y3.99
N1580 G3 X11.263 Y4.991 I-2.395 J0.
N1585 G2 X10.738 Y6.436 I8.452 J3.887
N1590 G3 X10.331 Y6.747 I-0.407 J-0.111
N1595 G1 X-4.859
N1600 G2 X-5.142 Y6.935 I0. J0.306
N1605 G3 X-5.424 Y7.123 I-0.282 J-0.118
N1610 G1 X-10.469
N1615 G3 X-10.788 Y6.804 I0. J-0.319
N1620 G1 Y-6.804
N1625 G3 X-10.469 Y-7.123 I0.319 J0.
N1630 G1 X10.959
N1635 G3 X11.354 Y-6.849 I0. J0.422
N1640 G2 X11.679 Y-6.091 I8.361 J-3.129
N1645 G3 X11.858 Y-5.309 I-1.616 J0.782
N1650 G1 Y4.073
N1655 G3 X11.632 Y5.09 I-2.395 J0.
N1660 G2 X11.033 Y6.799 I8.083 J3.788
N1665 G3 X10.623 Y7.123 I-0.411 J-0.098
N1670 G1 X-5.424
N1675 G2 X-5.706 Y7.311 I0. J0.306
N1680 G3 X-5.988 Y7.499 I-0.282 J-0.118
N1685 G1 X-10.845
N1690 G3 X-11.164 Y7.18 I0. J-0.319
N1695 G1 Y-7.18
N1700 G3 X-10.845 Y-7.499 I0.319 J0.
N1705 G1 X11.224
N1710 G3 X11.623 Y-7.214 I0. J0.422
N1715 G2 X12.049 Y-6.191 I8.092 J-2.764
N1720 G3 X12.234 Y-5.396 I-1.609 J0.795
N1725 G1 Y4.158
N1730 G3 X12. Y5.191 I-2.395 J0.
N1735 G2 X11.338 Y7.162 I7.715 J3.687
N1740 G3 X10.925 Y7.499 I-0.414 J-0.085
N1745 G1 X-5.988
N1750 G2 X-6.27 Y7.688 I0. J0.306
N1755 G3 X-6.552 Y7.876 I-0.282 J-0.118
N1760 G1 X-11.221
N1765 G3 X-11.541 Y7.556 I0. J-0.319
N1770 G1 Y-7.556
N1775 G3 X-11.221 Y-7.876 I0.319 J0.
N1780 G1 X11.497
N1785 G3 X11.901 Y-7.577 I0. J0.422
N1790 G2 X12.368 Y-6.394 I7.814 J-2.4
N1795 G3 X12.611 Y-5.344 I-2.153 J1.05
N1800 G1 Y4.244
N1805 G3 X12.368 Y5.294 I-2.395 J0.
N1810 G2 X11.64 Y7.609 I7.347 J3.584
N1815 G3 X11.328 Y7.876 I-0.312 J-0.049
N1820 G1 X-6.552
N1825 G2 X-6.835 Y8.064 I0. J0.306
N1830 G3 X-7.117 Y8.252 I-0.282 J-0.118
N1835 G1 X-11.598
N1840 G3 X-11.917 Y7.933 I0. J-0.319
N1845 G1 Y-7.933
N1850 G3 X-11.598 Y-8.252 I0.319 J0.
N1855 G1 X11.78
N1860 G3 X12.188 Y-7.94 I0. J0.422
N1865 G2 X12.735 Y-6.5 I7.527 J-2.038
N1870 G3 X12.987 Y-5.432 I-2.144 J1.068
N1875 G1 Y4.332
N1880 G3 X12.735 Y5.4 I-2.395 J0.
N1885 G2 X11.97 Y7.973 I6.98 J3.478
N1890 G3 X11.656 Y8.252 I-0.313 J-0.037
N1895 G1 X-7.117
N1900 G2 X-7.399 Y8.44 I0. J0.306
N1905 G3 X-7.681 Y8.628 I-0.282 J-0.118
N1910 G1 X-11.974
N1915 G3 X-12.293 Y8.309 I0. J-0.319
N1920 G1 Y-8.309
N1925 G3 X-11.974 Y-8.628 I0.319 J0.
N1930 G1 X12.074
N1935 G3 X12.485 Y-8.301 I0. J0.422
N1940 G2 X13.102 Y-6.608 I7.23 J-1.677
N1945 G3 X13.363 Y-5.521 I-2.134 J1.087
N1950 G1 Y4.421
N1955 G3 X13.102 Y5.508 I-2.395 J0.
N1960 G2 X12.313 Y8.336 I6.613 J3.369
N1965 G3 X11.998 Y8.628 I-0.315 J-0.023
N1970 G1 X-7.681
N1975 G2 X-7.963 Y8.816 I0. J0.306
N1980 G3 X-8.246 Y9.004 I-0.282 J-0.118
N1985 G1 X-12.35
N1990 G3 X-12.669 Y8.685 I0. J-0.319
N1995 G1 Y-8.685
N2000 G3 X-12.35 Y-9.004 I0.319 J0.
N2005 G1 X12.468
N2010 G3 X12.778 Y-8.744 I0. J0.315
N2015 G2 X13.468 Y-6.72 I6.937 J-1.234
N2020 G3 X13.739 Y-5.612 I-2.124 J1.108
N2025 G1 Y4.512
N2030 G3 X13.468 Y5.62 I-2.395 J0.
N2035 G2 X12.672 Y8.697 I6.247 J3.258
N2040 G3 X12.356 Y9.004 I-0.315 J-0.008
N2045 G1 X-8.246
N2050 G2 X-8.528 Y9.193 I0. J0.306
N2055 G3 X-8.81 Y9.381 I-0.282 J-0.118
N2060 G1 X-12.726
N2065 G3 X-13.046 Y9.061 I0. J-0.319
N2070 G1 Y-9.061
N2075 G3 X-12.726 Y-9.381 I0.319 J0.
N2080 G1 X12.79
N2085 G3 X13.103 Y-9.106 I0. J0.315
N2090 G2 X13.833 Y-6.834 I6.612 J-0.871
N2095 G3 X14.116 Y-5.706 I-2.112 J1.129
N2100 G1 Y4.606
N2105 G3 X13.833 Y5.734 I-2.395 J0.
N2110 G2 X13.04 Y8.878 I5.925 J3.167
N2115 G1 X13.043 Y8.97
N2120 X13.046 Y9.061
N2125 G3 X12.726 Y9.381 I-0.319 J0.
N2130 G1 X-8.81
N2135 G2 X-9.092 Y9.569 I0. J0.306
N2140 G3 X-9.374 Y9.757 I-0.282 J-0.118
N2145 G1 X-13.103
N2150 G3 X-13.422 Y9.438 I0. J-0.319
N2155 G1 Y-9.438
N2160 G3 X-13.103 Y-9.757 I0.319 J0.
N2165 G1 X13.128
N2170 G3 X13.443 Y-9.467 I0. J0.315
N2175 G2 X14.197 Y-6.952 I6.272 J-0.511
N2180 G3 X14.492 Y-5.801 I-2.1 J1.151
N2185 G1 Y4.701
N2190 G3 X14.197 Y5.852 I-2.395 J0.
N2195 G2 X13.61 Y7.315 I5.774 J3.166
N2200 X13.404 Y8.878 I5.837 J1.563
N2205 X13.413 Y9.158 I4.481 J0.
N2210 G3 X13.422 Y9.438 I-4.473 J0.28
N2215 X13.103 Y9.757 I-0.319 J0.
N2220 G1 X-9.374
N2225 G2 X-9.657 Y9.945 I0. J0.306
N2230 G3 X-9.939 Y10.133 I-0.282 J-0.118
N2235 G1 X-13.479
N2240 G3 X-13.798 Y9.814 I0. J-0.319
N2245 G1 Y-9.814
N2250 G3 X-13.479 Y-10.133 I0.319 J0.
N2255 G1 X13.485
N2260 G3 X13.8 Y-9.826 I0. J0.315
N2265 G2 X14.56 Y-7.074 I5.915 J-0.152
N2270 G3 X14.868 Y-5.898 I-2.087 J1.175
N2275 G1 Y4.798
N2280 G3 X14.56 Y5.974 I-2.395 J0.
N2285 G2 X13.977 Y7.375 I5.575 J3.14
N2290 X13.769 Y8.878 I5.321 J1.503
N2295 X13.784 Y9.346 I7.493 J0.
N2300 G3 X13.798 Y9.814 I-7.48 J0.468
N2305 X13.479 Y10.133 I-0.319 J0.
N2310 G1 X-9.939
N2315 G2 X-10.221 Y10.321 I0. J0.306
N2320 G3 X-10.503 Y10.509 I-0.282 J-0.118
N2325 G1 X-13.855
N2330 G3 X-14.174 Y10.19 I0. J-0.319
N2335 G1 Y-10.19
N2340 G3 X-13.855 Y-10.509 I0.319 J0.
N2345 G1 X13.855
N2350 G3 X14.174 Y-10.19 I0. J0.319
N2355 G1 X14.171 Y-10.084
N2360 X14.168 Y-9.978
N2365 G2 X14.921 Y-7.199 I5.498 J0.
N2370 G3 X15.244 Y-5.998 I-2.072 J1.201
N2375 G1 Y4.898
N2380 G3 X14.921 Y6.099 I-2.395 J0.
N2385 G2 X14.344 Y7.437 I5.37 J3.112
N2390 X14.133 Y8.878 I4.829 J1.441
N2395 X14.154 Y9.534 I10.505 J0.
N2400 G3 X14.174 Y10.19 I-10.487 J0.656
N2405 X13.855 Y10.509 I-0.319 J0.
N2410 G1 X-10.503
N2415 G2 X-10.785 Y10.698 I0. J0.306
N2420 G3 X-11.067 Y10.886 I-0.282 J-0.118
N2425 G1 X-14.231
N2430 G3 X-14.551 Y10.566 I0. J-0.319
N2435 G1 Y-10.566
N2440 G3 X-14.231 Y-10.886 I0.319 J0.
N2445 G1 X14.231
N2450 G3 X14.551 Y-10.566 I0. J0.319
N2455 X14.541 Y-10.272 I-4.712 J0.
N2460 G2 X14.532 Y-9.978 I4.702 J0.294
N2465 X14.744 Y-8.545 I4.958 J0.
N2470 X15.345 Y-7.226 I5.178 J-1.564
N2475 G3 X15.621 Y-6.27 I-1.519 J0.956
N2480 G1 Y5.17
N2485 G3 X15.345 Y6.126 I-1.795 J0.
N2490 G2 X14.731 Y7.443 I4.913 J3.093
N2495 X14.506 Y8.878 I4.465 J1.435
N2500 G1 X14.551 Y10.566
N2505 G3 X14.231 Y10.886 I-0.319 J0.
N2510 G1 X-11.067
N2515 G2 X-11.35 Y11.074 I0. J0.306
N2520 G3 X-11.632 Y11.262 I-0.282 J-0.118
N2525 G1 X-14.505
N2530 G3 X-14.927 Y10.84 I0. J-0.422
N2535 G1 Y-10.84
N2540 G3 X-14.505 Y-11.262 I0.422 J0.
N2545 G1 X14.505
N2550 G3 X14.927 Y-10.84 I0. J0.422
N2555 X14.913 Y-10.409 I-6.901 J0.
N2560 G2 X14.9 Y-9.978 I6.888 J0.431
N2565 X15.112 Y-8.611 I4.51 J0.
N2570 X15.705 Y-7.361 I4.893 J-1.556
N2575 G3 X15.997 Y-6.38 I-1.503 J0.981
N2580 G1 Y5.28
N2585 G3 X15.705 Y6.261 I-1.795 J0.
N2590 G2 X15.103 Y7.51 I4.518 J2.948
N2595 X14.882 Y8.878 I4.121 J1.368
N2600 G1 X14.927 Y10.84
N2605 G3 X14.505 Y11.262 I-0.422 J0.
N2610 G1 X-11.632
N2615 G2 X-11.88 Y11.427 I0. J0.269
N2620 G3 X-12.129 Y11.593 I-0.248 J-0.104
N2625 G1 X-14.715
N2630 G3 X-15.258 Y11.05 I0. J-0.543
N2635 G1 Y-11.05
N2640 G3 X-14.715 Y-11.593 I0.543 J0.
N2645 G1 X14.715
N2650 G3 X15.258 Y-11.05 I0. J0.543
N2655 G1 Y-9.978
N2660 G2 X15.475 Y-8.679 I3.996 J0.
N2665 X16.064 Y-7.501 I4.714 J-1.62
N2670 G3 X16.373 Y-6.494 I-1.486 J1.008
N2675 G1 Y5.394
N2680 G3 X16.064 Y6.401 I-1.795 J0.
N2685 G2 X15.312 Y8.665 I3.63 J2.462
N2690 X15.258 Y11.05 I52.723 J2.385
N2695 G3 X14.715 Y11.593 I-0.543 J0.
N2700 G1 X-12.129
N2705 G2 X-12.411 Y11.781 I0. J0.306
N2710 G3 X-12.693 Y11.969 I-0.282 J-0.118
N2715 G1 X-14.715
N2720 G3 X-15.634 Y11.05 I0. J-0.919
N2725 G1 Y-11.05
N2730 G3 X-14.715 Y-11.969 I0.919 J0.
N2735 G1 X14.715
N2740 G3 X15.587 Y-11.164 I0. J0.875
N2745 X15.634 Y-9.978 I-14.87 J1.186
N2750 G2 X15.863 Y-8.702 I3.68 J0.
N2755 X16.482 Y-7.563 I4.245 J-1.57
N2760 G3 X16.749 Y-6.758 I-1.078 J0.805
N2765 G1 Y5.658
N2770 G3 X16.482 Y6.463 I-1.345 J0.
N2775 G2 X15.687 Y8.688 I3.218 J2.404
N2780 X15.634 Y11.05 I52.946 J2.362
N2785 G3 X14.715 Y11.969 I-0.919 J0.
N2790 G1 X-12.693
N2795 G2 X-12.975 Y12.158 I0. J0.306
N2800 G3 X-13.257 Y12.346 I-0.282 J-0.118
N2805 G1 X-14.715
N2810 G3 X-16.011 Y11.05 I0. J-1.296
N2815 G1 Y-11.05
N2820 G3 X-14.715 Y-12.346 I1.296 J0.
N2825 G1 X14.715
N2830 G3 X16.011 Y-11.05 I0. J1.296
N2835 G1 Y-9.978
N2840 G2 X16.234 Y-8.778 I3.333 J0.
N2845 X16.838 Y-7.716 I3.839 J-1.482
N2850 G3 X17.126 Y-6.885 I-1.057 J0.831
N2855 G1 Y5.785
N2860 G3 X16.838 Y6.616 I-1.345 J0.
N2865 G2 X16.052 Y8.764 I2.9 J2.28
N2870 X16.011 Y11.05 I63.629 J2.286
N2875 G3 X14.715 Y12.346 I-1.296 J0.
N2880 G1 X-13.257
N2885 G2 X-13.54 Y12.534 I0. J0.306
N2890 G3 X-13.822 Y12.722 I-0.282 J-0.118
N2895 G1 X-14.715
N2900 G3 X-16.387 Y11.05 I0. J-1.672
N2905 G1 Y-11.05
N2910 G3 X-14.715 Y-12.722 I1.672 J0.
N2915 G1 X14.715
N2920 G3 X16.387 Y-11.05 I0. J1.672
N2925 G1 Y-9.978
N2930 G2 X16.605 Y-8.858 I2.986 J0.
N2935 X17.191 Y-7.878 I3.434 J-1.39
N2940 G3 X17.502 Y-7.018 I-1.034 J0.86
N2945 G1 Y5.918
N2950 G3 X17.191 Y6.778 I-1.345 J0.
N2955 G2 X16.415 Y8.844 I2.585 J2.15
N2960 X16.387 Y11.05 I87.565 J2.206
N2965 G3 X14.715 Y12.722 I-1.672 J0.
N2970 G1 X-13.822
N2975 G2 X-14.104 Y12.91 I0. J0.306
N2980 G3 X-14.386 Y13.098 I-0.282 J-0.118
N2985 G1 X-14.715
N2990 G3 X-16.763 Y11.05 I0. J-2.048
N2995 G1 Y-11.05
N3000 G3 X-14.715 Y-13.098 I2.048 J0.
N3005 G1 X14.715
N3010 G3 X16.763 Y-11.05 I0. J2.048
N3015 G1 Y-9.978
N3020 G2 X16.992 Y-8.899 I2.662 J0.
N3025 X17.603 Y-7.981 I2.979 J-1.321
N3030 G3 X17.878 Y-7.289 I-0.732 J0.692
N3035 G1 Y6.189
N3040 G3 X17.603 Y6.881 I-1.007 J0.
N3045 G2 X16.783 Y8.885 I2.179 J2.06
N3050 X16.763 Y11.05 I115.355 J2.165
N3055 G3 X14.715 Y13.098 I-2.048 J0.
N3060 G1 X-14.386
N3065 G2 X-14.664 Y13.287 I0. J0.298
N3070 G3 X-14.95 Y13.463 I-0.259 J-0.102
N3075 X-17.139 Y11.05 I0.235 J-2.413
N3080 G1 Y-11.05
N3085 G3 X-14.715 Y-13.474 I2.424 J0.
N3090 G1 X14.715
N3095 G3 X17.139 Y-11.05 I0. J2.424
N3100 G1 Y-9.978
N3105 G2 X17.361 Y-8.989 I2.315 J0.
N3110 X17.95 Y-8.165 I2.575 J-1.216
N3115 G3 X18.254 Y-7.443 I-0.703 J0.722
N3120 G1 Y6.343
N3125 G3 X17.95 Y7.065 I-1.007 J0.
N3130 G2 X17.139 Y8.984 I1.869 J1.92
N3135 G1 Y11.05
N3140 G3 X14.715 Y13.474 I-2.424 J0.
N3145 G1 X-14.715
N3150 X-14.833 Y13.472
N3155 X-14.95 Y13.463
N3160 G2 X-15.238 Y13.61 I-0.029 J0.299
N3165 G3 X-15.539 Y13.727 I-0.224 J-0.132
N3170 X-17.516 Y11.05 I0.824 J-2.677
N3175 G1 Y-11.05
N3180 G3 X-14.715 Y-13.851 I2.801 J0.
N3185 G1 X14.715
N3190 G3 X17.516 Y-11.05 I0. J2.801
N3195 G1 Y-9.978
N3200 G2 X17.746 Y-9.049 I1.986 J0.
N3205 X18.353 Y-8.309 I2.131 J-1.128
N3210 G3 X18.631 Y-7.724 I-0.477 J0.585
N3215 G1 Y6.624
N3220 G3 X18.353 Y7.209 I-0.754 J0.
N3225 G2 X17.502 Y9.035 I1.464 J1.794
N3230 G3 X17.516 Y11.05 I-144.711 J2.015
N3235 X14.715 Y13.851 I-2.801 J0.
N3240 G1 X-14.715
N3245 G3 X-15.539 Y13.727 I0. J-2.801
N3250 G2 X-15.852 Y13.814 I-0.088 J0.287
N3255 G3 X-16.172 Y13.873 I-0.198 J-0.176
N3260 X-17.892 Y11.05 I1.457 J-2.823
N3265 G1 Y-11.05
N3270 G3 X-14.715 Y-14.227 I3.177 J0.
N3275 G1 X14.715
N3280 G3 X17.892 Y-11.05 I0. J3.177
N3285 G1 Y-9.978
N3290 G2 X18.113 Y-9.155 I1.639 J0.
N3295 X18.688 Y-8.526 I1.73 J-1.004
N3300 G3 X19.007 Y-7.91 I-0.436 J0.616
N3305 G1 Y6.81
N3310 G3 X18.688 Y7.426 I-0.754 J0.
N3315 G2 X17.849 Y9.141 I1.15 J1.625
N3320 G3 X17.892 Y11.05 I-42.412 J1.909
N3325 X14.715 Y14.227 I-3.177 J0.
N3330 G1 X-14.715
N3335 G3 X-16.172 Y13.873 I0. J-3.177
N3340 G2 X-16.538 Y13.908 I-0.156 J0.303
N3345 G3 X-16.906 Y13.91 I-0.185 J-0.236
N3350 X-18.318 Y11.05 I2.191 J-2.86
N3355 G1 Y-11.05
N3360 G3 X-14.715 Y-14.653 I3.603 J0.
N3365 G1 X14.715
N3370 G3 X18.318 Y-11.05 I0. J3.603
N3375 G1 Y-9.978
N3380 G2 X19.292 Y-8.647 I1.397 J0.
N3385 G1 X19.331 Y-8.627
N3390 X19.361 Y-8.597
N3395 X19.381 Y-8.558
N3400 X19.388 Y-8.515
N3405 Y7.415
N3410 X19.381 Y7.458
N3415 X19.361 Y7.497
N3420 X19.331 Y7.527
N3425 X19.292 Y7.547
N3430 G2 X18.318 Y8.878 I0.423 J1.331
N3435 G1 Y11.05
N3440 G3 X14.715 Y14.653 I-3.603 J0.
N3445 G1 X-14.715
N3450 G3 X-16.906 Y13.91 I0. J-3.603
N3455 G1 X-16.925 Y13.889 Z-0.988
N3460 X-16.936 Y13.864 Z-0.977
N3465 X-16.937 Y13.84 Z-0.921
N3470 Z15.
(WHEN USING FUSION 360 FOR PERSONAL USE, THE FEEDRATE OF)
(RAPID MOVES IS REDUCED TO MATCH THE FEEDRATE OF CUTTING)
(MOVES, WHICH CAN INCREASE MACHINING TIME. UNRESTRICTED RAPID)
(MOVES ARE AVAILABLE WITH A FUSION 360 SUBSCRIPTION.)
(2D POCKET5)
N3475 G0 X19.112 Y6.213
N3480 G1 Z15. F1000.
N3485 Z5.
N3490 Z2.579 F333.33
N3495 Y6.208 Z2.55
N3500 Y6.191 Z2.524
N3505 Y6.166 Z2.507
N3510 Y6.137 Z2.5
N3515 Y-8.515 Z1.988
N3520 G3 X19.25 Y-8.653 Z1.981 I0.138 J0.
N3525 X19.388 Y-8.515 Z1.973 I0. J0.138
N3530 G1 Y7.415 Z1.417
N3535 G3 X19.25 Y7.553 Z1.409 I-0.138 J0.
N3540 X19.112 Y7.415 Z1.402 I0. J-0.138
N3545 G1 Y-8.515 Z0.845
N3550 G3 X19.25 Y-8.653 Z0.838 I0.138 J0.
N3555 X19.388 Y-8.515 Z0.83 I0. J0.138
N3560 G1 Y7.415 Z0.274
N3565 G3 X19.25 Y7.553 Z0.266 I-0.138 J0.
N3570 X19.112 Y7.415 Z0.259 I0. J-0.138
N3575 G1 Y-8.515 Z-0.297
N3580 G3 X19.25 Y-8.653 Z-0.305 I0.138 J0.
N3585 X19.388 Y-8.515 Z-0.313 I0. J0.138
N3590 G1 Y7.415 Z-0.869
N3595 G3 X19.25 Y7.553 Z-0.876 I-0.138 J0.
N3600 X19.112 Y7.415 Z-0.884 I0. J-0.138
N3605 G1 Y-8.515 Z-1.44
N3610 G3 X19.25 Y-8.653 Z-1.448 I0.138 J0.
N3615 X19.388 Y-8.515 Z-1.455 I0. J0.138
N3620 G1 Y7.415 Z-2.012
N3625 G3 X19.25 Y7.553 Z-2.019 I-0.138 J0.
N3630 X19.112 Y7.415 Z-2.027 I0. J-0.138
N3635 G1 Y-8.515 Z-2.583
N3640 G3 X19.25 Y-8.653 Z-2.591 I0.138 J0.
N3645 X19.388 Y-8.515 Z-2.598 I0. J0.138
N3650 G1 Y-8.467 Z-2.6
N3655 Y7.415 F1000.
N3660 G3 X19.25 Y7.553 I-0.138 J0.
N3665 X19.112 Y7.415 I0. J-0.138
N3670 G1 Y-8.515
N3675 G3 X19.25 Y-8.653 I0.138 J0.
N3680 X19.388 Y-8.515 I0. J0.138
N3685 G1 Y-8.467
N3690 X19.383 Y-8.44 Z-2.588
N3695 X19.369 Y-8.416 Z-2.577
N3700 X19.352 Y-8.401 Z-2.521
N3705 Z15.
N3710 M9
N3715 G53 G0 Z0.
N3720 M30
%
